X: 42950
T: William's Return
R: jig
M: 6/8
K: Adorian
|:age ede|~g3 B z b|age edB|dBA A2 b|
age ede|~g3 a z b|age edB|dBA A3:|
|:B d2 B d2|B ~g2age|d2 B d2 B|dBA A3|
B d2 B d2|B ~g2 a z b|age edB|dBA A3:|

